X: 20
M:2/4
L:1/16
K:D
vAddA Bdgb|afba gfed|gaba gfed|{e}dcfe dcB_B|
"4"d'"3"c'"2"b"1"a "2"gfed|1 cABc d2z2:|2 cABc d2
|:(uag)|vfada fada|gbeb gbeb|gage cA{c}BA|abaf dA{c}BA|
fada fada|gbeb gbeb|"1"a"2"b"3"c'"2"b "1"a"4"g"3"f"2"e\
|1 "1"d2{c'}"4"d'2"1"d2:|2 "1"d2{c'}"4"d'2"1"d2|]


